cutejava-front/src/assets/icons/svg/work-joblog.svg

<?xml version="1.0" standalone="no"?><!DOCTYPE svg PUBLIC "-//W3C//DTD SVG 1.1//EN" "http://www.w3.org/Graphics/SVG/1.1/DTD/svg11.dtd"><svg t="1608289112487" class="icon" viewBox="0 0 1043 1024" version="1.1" xmlns="http://www.w3.org/2000/svg" p-id="4009" xmlns:xlink="http://www.w3.org/1999/xlink" width="203.7109375" height="200"><defs><style type="text/css"></style></defs><path d="M598.305239 925.740319l-265.330296 58.314351 27.407745-102.050114 43.735763-158.323463 373.211845-368.546697v-291.571754A58.314351 58.314351 0 0 0 723.681093 0h-107.881549v87.471526a23.034169 23.034169 0 1 1-46.068337 0V0h-153.949886v87.471526a23.034169 23.034169 0 0 1-23.034168 23.034169 23.034169 23.034169 0 0 1-23.034169-23.034169V0H215.471526v87.471526a23.034169 23.034169 0 1 1-46.068337 0V0h-107.881549A66.186788 66.186788 0 0 0 0 61.52164V962.186788a66.186788 66.186788 0 0 0 61.52164 61.52164h654.578588A66.186788 66.186788 0 0 0 777.621868 962.186788v-215.763098zM135.872437 230.633257h469.430524a20.410023 20.410023 0 0 1 23.034169 23.034169 20.410023 20.410023 0 0 1-23.034169 23.034169H135.872437a20.410023 20.410023 0 0 1-23.034168-23.034169 20.410023 20.410023 0 0 1 23.034168-23.034169z m0 169.403189h469.430524a20.410023 20.410023 0 0 1 23.034169 23.034169 20.410023 20.410023 0 0 1-23.034169 23.034169H135.872437a20.410023 20.410023 0 0 1-23.034168-23.034169 20.410023 20.410023 0 0 1 23.034168-23.034169z m-23.034168 207.890661a20.410023 20.410023 0 0 1 23.034168-23.034169h269.412301a20.410023 20.410023 0 0 1 23.034169 23.034169 24.492027 24.492027 0 0 1-23.034169 23.034169H135.872437a20.410023 20.410023 0 0 1-23.32574-23.325741z" p-id="4010"></path><path d="M432.109339 731.553531l366.505695-363.589977L962.186788 533.284738 595.681093 896.583144zM349.886105 966.851936l230.633257-53.649203-163.863326-165.321184zM1030.70615 404.410023l-101.758542-102.633258a44.610478 44.610478 0 0 0-62.396355 0L816.400911 352.510251l163.863326 165.321184L1030.414579 466.514806a44.610478 44.610478 0 0 0 0.291571-62.104783z" p-id="4011"></path></svg>

<svg class="icon" viewBox="0 0 1043 1024" xmlns="http://www.w3.org/2000/svg" width="203.711" height="200"><defs><style/></defs><path d="M598.305 925.74l-265.33 58.315 27.408-102.05 43.735-158.324L777.33 355.134V63.563A58.314 58.314 0 0 0 723.681 0H615.8v87.472a23.034 23.034 0 1 1-46.069 0V0h-153.95v87.472a23.034 23.034 0 0 1-23.034 23.034 23.034 23.034 0 0 1-23.034-23.034V0H215.472v87.472a23.034 23.034 0 1 1-46.069 0V0H61.522A66.187 66.187 0 0 0 0 61.522v900.665a66.187 66.187 0 0 0 61.522 61.521H716.1a66.187 66.187 0 0 0 61.522-61.521V746.424zM135.872 230.633h469.431a20.41 20.41 0 0 1 23.034 23.034 20.41 20.41 0 0 1-23.034 23.035h-469.43a20.41 20.41 0 0 1-23.035-23.035 20.41 20.41 0 0 1 23.034-23.034zm0 169.403h469.431a20.41 20.41 0 0 1 23.034 23.035 20.41 20.41 0 0 1-23.034 23.034h-469.43a20.41 20.41 0 0 1-23.035-23.034 20.41 20.41 0 0 1 23.034-23.035zm-23.034 207.891a20.41 20.41 0 0 1 23.034-23.034h269.413a20.41 20.41 0 0 1 23.034 23.034 24.492 24.492 0 0 1-23.034 23.034H135.872a20.41 20.41 0 0 1-23.325-23.325z"/><path d="M432.11 731.554l366.505-363.59 163.572 165.32-366.506 363.3zm-82.224 235.298l230.633-53.65-163.863-165.32zm680.82-562.442L928.948 301.777a44.61 44.61 0 0 0-62.397 0l-50.15 50.733 163.863 165.321 50.15-51.316a44.61 44.61 0 0 0 .292-62.105z"/></svg>
